X:1
T:A Better Home
T:A Better Home
T:Charles Albert Tindley
T:Charles Albert Tindley, 1901
T:Public Domain Courtesy of the Cyber Hymnal™
T:Public Domain Courtesy of the Cyber Hymnal™
C:Charles Albert Tindley
Z:Public Domain
Z:Courtesy of the Cyber Hymnal™
%%score ( 1 2 ) ( 3 4 )
L:1/8
Q:1/4=87
M:4/4
K:F
V:1 treble 
V:2 treble 
V:3 bass 
V:4 bass 
V:1
 FF | [FA]>[FA] [FA][EG] [CF]2 [CF][CF] | [DG]>[DF] [DF][B,D] [A,C]2 [A,C][A,C] | %3
w: 1.~Ev- er|si- nce I have been Liv- ing|in this world of sin, I have|
w: 2.~It was|wh- en I was young I be-|gan to think up- on My con-|
w: 3.~When I|re- al- ized I had Found the|Lord, I was so glad, For I|
w: 4.~O- ld|Sa- tan tried to get Me to|live a hyp- o- crite, And to|
w: 5.~I ~|tried it for a while, Keep- ing|up with ev- ery style, And was|
w: 6.~Then I|put the world a- side, Tak- ing|Je- sus for my guide, I be-|
 [CF][CF][CF][CF] [CF][EG][FA][FA] | [EG]6 F>[FG] | [FA][FA] [FA]>[EG] [CF]2 FF | %6
w: ha- d tri- als al- most ev- ery|day; Al- ways|some- thing, more or less, To des-|
w: di- tion as a sin- ner u- n-|saved; And at|once made up my mind, While I|
w: tho- ught all my tri- als would be|done; That my|way would al- ways be One con-|
w: o- n- l- y have an out- ward|form; He said|time had changed the way, And in|
w: trying to get the crown with- out the|cross. I ~|found it would not do; For the|
w: gan to try to walk the nar- row|way. It is|te- dious, I ad- mit, But I|
 [DG][DF] [DF]>[B,D] [A,C]2 [A,C][A,C] | [CF][CF][CF][FA] [FA][FA] [EG]>F | F6 || %9
w: troy my hap- pi- ness, An- d|this is how I’ve co- me all the|way.|
w: had suf- fi- cient time, I would|bo- w on my kne- es an- d|pray.|
w: tin- uous ju- bi- lee, But I|fo- und out my trials had just be-|gun.|
w: this en- light- ened day T- o|do what- e’er you ple- ase is no|harm.|
w: Word of God is true. And un-|less I live up- right I would be|lost.|
w: am not wear- y yet; I shall|tra- vel on un- til the per- fect|day.|
"^Refrain" [Fc]>[Fc] | [Fd][Fc] [Fc]>[FA] [FA][CG] [CF]<[CG] | [FA]6 [Fc]>[Fc] | %12
w: |||
w: |||
w: I have|start- ed out to find a bet- ter|home, Where the|
w: |||
w: |||
w: |||
 [Fd][Fc][Fc][FA] [FA][EG]F[FA] | [EG]6 F>[FG] | [FA][FA] [FA]>[EG] [CF]2 FF | %15
w: |||
w: |||
w: tri- als of this life can ne- ver|come. There with|rel- a- tives and friends, I shall|
w: |||
w: |||
w: |||
 [DG][DF] [DF]>[B,D] [A,C]2 [A,C][A,C] | [CF][CF][CF][FA] [FA][FA] [EG]>F | F6 |] %18
w: |||
w: |||
w: be so hap- py then, In the|pre- sence of the Lo- rd all the|time.|
w: |||
w: |||
w: |||
V:2
 FF | x8 | x8 | x8 | x6 F3/2 x/ | x6 FF | x8 | x15/2 F/ | F6 || x2 | x8 | x8 | x6 F x | %13
 x6 F3/2 x/ | x6 FF | x8 | x15/2 F/ | F6 |] %18
V:3
 [F,A,][F,A,] | [F,C][F,C][F,C][F,B,] [F,A,]2 [F,A,][F,A,] | %2
 [B,,B,]>[B,,B,] [B,,B,][B,,F,] F,2 F,F, | [F,A,][F,A,][F,A,][F,A,] [F,A,][F,B,][F,C][F,C] | %4
 [C,C]6 [F,A,]>[F,B,] | [F,C][F,C] [F,C]>[F,B,] [F,A,]2 [F,A,][F,A,] | %6
 [B,,B,][B,,B,] [B,,B,]>[B,,F,] F,2 F,F, | [F,A,][F,A,][F,A,][F,C] [F,C][F,C] [C,B,]>[F,A,] | %8
 [F,A,]6 || [F,A,]>[F,A,] | [F,B,][F,A,] [F,A,]>[F,C] [F,C][F,B,] [F,A,]<[F,B,] | %11
 [F,C]6 [F,A,]>[F,A,] | [F,B,][F,A,][F,A,][F,C] [F,C][F,B,][F,A,][F,C] | [C,C]6 [F,A,]>[F,B,] | %14
 [F,C][F,C] [F,C]>[F,B,] [F,A,]2 [F,A,][F,A,] | [B,,B,][B,,B,] [B,,B,]>[B,,F,] F,2 F,F, | %16
 [F,A,][F,A,][F,A,][F,C] [F,C][F,C] [C,B,]>[F,A,] | [F,A,]6 |] %18
V:4
 x2 | x8 | x4 F,2 F,F, | x8 | x8 | x8 | x4 F,2 F,F, | x8 | x6 || x2 | x8 | x8 | x8 | x8 | x8 | %15
 x4 F,2 F,F, | x8 | x6 |] %18

